X:4
T:Lichtmann 4
C:H. Purcell
M:3/4
L:1/8
Q:"Allegro" 1/4=100
K:C
!f!G"_pomposo"G/G/ EG EG|cc/c/ Gc Gc|ee/d/ ce dg/f/|ed/c/ g4|
GG/G/ EG EG|cc/c/ Gc Gc|ee/d/ ce dg/f/|ed/e/ c4||G/F/G/A/ GE GF/E/|
D/C/D/E/ DG DE/F/|GE CD/E/ DE/F/|EG DE/F/ EF/E/|DE/D/ D3 C|C6|]

